vendor/shopware/storefront/Resources/app/storefront/dist/assets/icon/default/plug.svg

<svg xmlns="http://www.w3.org/2000/svg" width="24" height="24" viewBox="0 0 24 24">
  <path fill="#758CA3" fill-rule="evenodd" d="M19,16 L19,17 C19,18.1045695 18.1045695,19 17,19 L9,19 C6.790861,19 5,17.209139 5,15 L5,13 L1,13 C0.44771525,13 0,12.5522847 0,12 C0,11.4477153 0.44771525,11 1,11 L5,11 L5,9 C5,6.790861 6.790861,5 9,5 L17,5 C18.1045695,5 19,5.8954305 19,7 L19,8 L22,8 C22.5522847,8 23,8.44771525 23,9 C23,9.55228475 22.5522847,10 22,10 L19,10 L19,14 L22,14 C22.5522847,14 23,14.4477153 23,15 C23,15.5522847 22.5522847,16 22,16 L19,16 Z M9,7 C7.8954305,7 7,7.8954305 7,9 L7,15 C7,16.1045695 7.8954305,17 9,17 L17,17 L17,7 L9,7 Z M8,11 C8,10.4477153 8.44771525,10 9,10 C9.55228475,10 10,10.4477153 10,11 L10,13 C10,13.5522847 9.55228475,14 9,14 C8.44771525,14 8,13.5522847 8,13 L8,11 Z"/>
</svg>

<svg xmlns="http://www.w3.org/2000/svg" width="24" height="24" viewBox="0 0 24 24"><path fill="#758CA3" fill-rule="evenodd" d="M19 16v1c0 1.1046-.8954 2-2 2H9c-2.2091 0-4-1.7909-4-4v-2H1c-.5523 0-1-.4477-1-1s.4477-1 1-1h4V9c0-2.2091 1.7909-4 4-4h8c1.1046 0 2 .8954 2 2v1h3c.5523 0 1 .4477 1 1s-.4477 1-1 1h-3v4h3c.5523 0 1 .4477 1 1s-.4477 1-1 1h-3zM9 7c-1.1046 0-2 .8954-2 2v6c0 1.1046.8954 2 2 2h8V7H9zm-1 4c0-.5523.4477-1 1-1s1 .4477 1 1v2c0 .5523-.4477 1-1 1s-1-.4477-1-1v-2z"/></svg>
